public/images/hashed/7b407a4cbca91175bcd1f5c26edd175b.svg

<svg xmlns="http://www.w3.org/2000/svg" width="80" height="80"><defs><linearGradient id="a" x1="0%" x2="100%" y1="100%" y2="0%"><stop offset="0%" stop-color="#2E27AD"/><stop offset="100%" stop-color="#527FFF"/></linearGradient></defs><g fill="none" fill-rule="evenodd"><path fill="url(#a)" d="M0 0h80v80H0z"/><path fill="#FFF" d="M56.5 59.453c-1.93 0-3.5-1.57-3.5-3.5s1.57-3.5 3.5-3.5 3.5 1.57 3.5 3.5-1.57 3.5-3.5 3.5Zm0-9a5.506 5.506 0 0 0-5.5 5.5c0 3.033 2.468 5.5 5.5 5.5s5.5-2.467 5.5-5.5-2.468-5.5-5.5-5.5Zm10.236 6.539-.833-.048a1.011 1.011 0 0 0-1.032.778 8.706 8.706 0 0 1-1.129 2.725 1 1 0 0 0 .18 1.279l.622.556-1.704 1.704-.552-.619a.999.999 0 0 0-1.28-.18 8.676 8.676 0 0 1-2.727 1.13 1 1 0 0 0-.778 1.033l.047.827h-2.409l.047-.828a1 1 0 0 0-.778-1.033 8.663 8.663 0 0 1-2.725-1.131 1 1 0 0 0-1.281.18l-.553.621-1.705-1.704.621-.554a1 1 0 0 0 .179-1.28 8.684 8.684 0 0 1-1.128-2.725 1.032 1.032 0 0 0-1.032-.779l-.831.048v-2.411l.835.048c.465.015.924-.3 1.032-.777a8.69 8.69 0 0 1 1.13-2.721 1.001 1.001 0 0 0-.18-1.281l-.626-.559 1.705-1.704.558.626a.998.998 0 0 0 1.279.179 8.673 8.673 0 0 1 2.722-1.126 1 1 0 0 0 .778-1.032l-.047-.838h2.41l-.048.839a.999.999 0 0 0 .777 1.032c.965.218 1.88.597 2.721 1.127.41.26.954.186 1.279-.18l.56-.627 1.705 1.704-.625.558a1 1 0 0 0-.179 1.28c.53.838.909 1.754 1.128 2.721.108.478.562.794 1.032.779l.835-.048v2.411Zm1.687-4.197a1.005 1.005 0 0 0-.743-.271l-1.08.062a10.654 10.654 0 0 0-.742-1.787l.808-.72a1.002 1.002 0 0 0 .041-1.453l-3.201-3.202a.954.954 0 0 0-.735-.292.995.995 0 0 0-.718.334l-.724.811a10.625 10.625 0 0 0-1.783-.74l.061-1.084a.998.998 0 0 0-.998-1.057h-4.527a1 1 0 0 0-.998 1.057l.062 1.083c-.618.192-1.213.438-1.786.739l-.722-.81a1.005 1.005 0 0 0-1.453-.041l-3.202 3.202a1.002 1.002 0 0 0 .041 1.453l.81.722a10.664 10.664 0 0 0-.741 1.785l-1.081-.062a.984.984 0 0 0-.743.271.997.997 0 0 0-.314.727v4.528a1.002 1.002 0 0 0 1.057.999l1.076-.062c.192.618.439 1.216.741 1.79l-.805.717a1.002 1.002 0 0 0-.041 1.453l3.202 3.201c.194.195.475.303.735.293.275-.008.534-.129.718-.334l.717-.804c.574.302 1.172.55 1.79.742l-.061 1.075a.998.998 0 0 0 .998 1.057h4.527a1.001 1.001 0 0 0 .998-1.058l-.061-1.072a10.694 10.694 0 0 0 1.791-.742l.716.802a.999.999 0 0 0 .718.334.967.967 0 0 0 .735-.293l3.201-3.201a1 1 0 0 0-.041-1.453l-.806-.719c.301-.573.549-1.171.741-1.788l1.079.062a1 1 0 0 0 1.056-.999v-4.528a1 1 0 0 0-.313-.727ZM30.11 32.953c0-4.136 3.365-7.5 7.5-7.5 4.136 0 7.5 3.364 7.5 7.5s-3.364 7.5-7.5 7.5c-4.135 0-7.5-3.364-7.5-7.5Zm6.913 32.409-11.806-6.373.307.004c.121-9.264 5.586-16.521 12.444-16.521 2.573 0 5.046 1.086 7.152 3.14l1.397-1.432c-1.336-1.303-2.81-2.264-4.367-2.885a9.503 9.503 0 0 0 4.96-8.342c0-5.238-4.261-9.5-9.5-9.5-5.238 0-9.5 4.262-9.5 9.5 0 3.712 2.146 6.925 5.256 8.487-5.473 2.347-9.427 8.786-9.798 16.659L14 52.933V26.427l23.6-12.164L60 26.412v14.936h2V25.222L37.623 12 12 25.208v28.919l24.977 13.482 5.46-2.655-.875-1.798-4.539 2.206Z"/></g></svg>

<?xml version="1.0" encoding="UTF-8"?>
<svg width="80px" height="80px" viewBox="0 0 80 80" version="1.1" xmlns="http://www.w3.org/2000/svg" xmlns:xlink="http://www.w3.org/1999/xlink">
    <!-- Generator: Sketch 64 (93537) - https://sketch.com -->
    <title>Icon-Architecture/64/Arch_AWS-Support_64</title>
    <desc>Created with Sketch.</desc>
    <defs>
        <linearGradient x1="0%" y1="100%" x2="100%" y2="0%" id="linearGradient-1">
            <stop stop-color="#2E27AD" offset="0%"></stop>
            <stop stop-color="#527FFF" offset="100%"></stop>
        </linearGradient>
    </defs>
    <g id="Icon-Architecture/64/Arch_AWS-Support_64" stroke="none" stroke-width="1" fill="none" fill-rule="evenodd">
        <g id="Icon-Architecture-BG/64/Customer-Enablement" fill="url(#linearGradient-1)">
            <rect id="Rectangle" x="0" y="0" width="80" height="80"></rect>
        </g>
        <path d="M56.5,59.453 C54.57,59.453 53,57.883 53,55.953 C53,54.023 54.57,52.453 56.5,52.453 C58.43,52.453 60,54.023 60,55.953 C60,57.883 58.43,59.453 56.5,59.453 L56.5,59.453 Z M56.5,50.453 C53.468,50.453 51,52.92 51,55.953 C51,58.986 53.468,61.453 56.5,61.453 C59.532,61.453 62,58.986 62,55.953 C62,52.92 59.532,50.453 56.5,50.453 L56.5,50.453 Z M66.736,56.992 L65.903,56.944 C65.431,56.916 64.979,57.245 64.871,57.722 C64.652,58.689 64.272,59.606 63.742,60.447 C63.481,60.86 63.558,61.401 63.922,61.726 L64.544,62.282 L62.84,63.986 L62.288,63.367 C61.961,63 61.42,62.927 61.008,63.187 C60.167,63.718 59.25,64.098 58.281,64.317 C57.804,64.425 57.475,64.862 57.503,65.35 L57.55,66.177 L55.141,66.177 L55.188,65.349 C55.216,64.86 54.887,64.424 54.41,64.316 C53.443,64.097 52.526,63.717 51.685,63.185 C51.271,62.925 50.729,62.998 50.404,63.365 L49.851,63.986 L48.146,62.282 L48.767,61.728 C49.131,61.403 49.207,60.862 48.946,60.448 C48.416,59.608 48.037,58.691 47.818,57.723 C47.711,57.245 47.23,56.916 46.786,56.944 L45.955,56.992 L45.955,54.581 L46.79,54.629 C47.255,54.644 47.714,54.329 47.822,53.852 C48.042,52.885 48.422,51.97 48.952,51.131 C49.213,50.718 49.137,50.176 48.772,49.85 L48.146,49.291 L49.851,47.587 L50.409,48.213 C50.735,48.578 51.276,48.653 51.688,48.392 C52.528,47.863 53.443,47.484 54.41,47.266 C54.887,47.158 55.216,46.722 55.188,46.234 L55.141,45.396 L57.551,45.396 L57.503,46.235 C57.475,46.723 57.804,47.16 58.28,47.267 C59.245,47.485 60.16,47.864 61.001,48.394 C61.411,48.654 61.955,48.58 62.28,48.214 L62.84,47.587 L64.545,49.291 L63.92,49.849 C63.556,50.174 63.479,50.716 63.741,51.129 C64.271,51.967 64.65,52.883 64.869,53.85 C64.977,54.328 65.431,54.644 65.901,54.629 L66.736,54.581 L66.736,56.992 Z M68.423,52.795 C68.224,52.607 67.948,52.507 67.68,52.524 L66.6,52.586 C66.407,51.968 66.159,51.371 65.858,50.799 L66.666,50.079 C66.871,49.896 66.992,49.636 67,49.361 C67.008,49.086 66.901,48.82 66.707,48.626 L63.506,45.424 C63.311,45.229 63.052,45.115 62.771,45.132 C62.495,45.14 62.235,45.26 62.053,45.466 L61.329,46.277 C60.757,45.976 60.161,45.729 59.546,45.537 L59.607,44.453 C59.623,44.178 59.525,43.909 59.336,43.709 C59.147,43.509 58.885,43.396 58.609,43.396 L54.082,43.396 C53.807,43.396 53.544,43.509 53.355,43.709 C53.166,43.909 53.068,44.178 53.084,44.453 L53.146,45.536 C52.528,45.728 51.933,45.974 51.36,46.275 L50.638,45.465 C50.454,45.26 50.194,45.14 49.92,45.132 C49.663,45.118 49.379,45.229 49.185,45.424 L45.983,48.626 C45.789,48.82 45.683,49.086 45.69,49.361 C45.698,49.636 45.819,49.896 46.024,50.079 L46.834,50.801 C46.533,51.373 46.286,51.969 46.093,52.586 L45.012,52.524 C44.733,52.506 44.467,52.607 44.269,52.795 C44.068,52.984 43.955,53.247 43.955,53.522 L43.955,58.05 C43.955,58.325 44.068,58.588 44.269,58.777 C44.467,58.966 44.734,59.062 45.012,59.049 L46.088,58.987 C46.28,59.605 46.527,60.203 46.829,60.777 L46.024,61.494 C45.819,61.677 45.698,61.937 45.69,62.212 C45.683,62.487 45.789,62.753 45.983,62.947 L49.185,66.148 C49.379,66.343 49.66,66.451 49.92,66.441 C50.195,66.433 50.454,66.312 50.638,66.107 L51.355,65.303 C51.929,65.605 52.527,65.853 53.145,66.045 L53.084,67.12 C53.068,67.394 53.166,67.663 53.355,67.863 C53.544,68.063 53.807,68.177 54.082,68.177 L58.609,68.177 C58.885,68.177 59.147,68.063 59.337,67.863 C59.525,67.663 59.623,67.394 59.607,67.119 L59.546,66.047 C60.165,65.854 60.764,65.606 61.337,65.305 L62.053,66.107 C62.235,66.312 62.495,66.433 62.771,66.441 C63.055,66.453 63.312,66.343 63.506,66.148 L66.707,62.947 C66.901,62.753 67.008,62.487 67,62.212 C66.992,61.937 66.871,61.677 66.666,61.494 L65.86,60.775 C66.161,60.202 66.409,59.604 66.601,58.987 L67.68,59.049 C67.947,59.061 68.224,58.966 68.423,58.777 C68.623,58.588 68.736,58.325 68.736,58.05 L68.736,53.522 C68.736,53.247 68.623,52.984 68.423,52.795 L68.423,52.795 Z M30.11,32.953 C30.11,28.817 33.475,25.453 37.61,25.453 C41.746,25.453 45.11,28.817 45.11,32.953 C45.11,37.089 41.746,40.453 37.61,40.453 C33.475,40.453 30.11,37.089 30.11,32.953 L30.11,32.953 Z M37.023,65.362 L25.217,58.989 L25.524,58.993 C25.645,49.729 31.11,42.472 37.968,42.472 C40.541,42.472 43.014,43.558 45.12,45.612 L46.517,44.18 C45.181,42.877 43.707,41.916 42.15,41.295 C45.104,39.682 47.11,36.548 47.11,32.953 C47.11,27.715 42.849,23.453 37.61,23.453 C32.372,23.453 28.11,27.715 28.11,32.953 C28.11,36.665 30.256,39.878 33.366,41.44 C27.893,43.787 23.939,50.226 23.568,58.099 L14,52.933 L14,26.427 L37.6,14.263 L60,26.412 L60,41.348 L62,41.348 L62,25.222 L37.623,12 L12,25.208 L12,54.127 L36.977,67.609 L42.437,64.954 L41.562,63.156 L37.023,65.362 Z" id="AWS-Support_64_Squid" fill="#FFFFFF"></path>
    </g>
</svg>
